X:683
T:Seallaibh Curaidh Eoghainn
T:Ewan's Coracle
D:Music from the Western Isles
N:A version of The Drummer
Z:Nigel Gatherer
M:4/4
L:1/8
K:Bm
z | BBBA  F3  G | A2 AB cBAc | BBBA  F3  e | fedc B3 :|
c | d2 df e2 ef | d2 df ecAc | d2 df e2 ee | fedc B3 :|
